X:1
T:Title
%%score 1 { 2 | 3 }
L:1/8
Q:1/4=100
M:4/4
K:G
V:1 treble nm="Grand Piano, Soprano"
V:2 bass nm="Choir Pad, Evening, Jeremiah F. Ohl"
V:3 bass 
V:1
 [B,D]2 [B,D]2 [B,D]2 [CE]2 | [CE]2 [DF]2 [DF]2 [DG]2 | [DB]2 [^CB]2 [CA]2 [EB]2 | [E^c]2 [Dd]6 | %4
w: By~Jeremiah~Franklin~Ohl,~1884 * * *||||
 [Dd]2 [DG]2 [DG]2 [Dc]2 | [Dc]2 [DF]2 D2 [DG]2 | [=FB]2 [EB]2 [EA]2 [CE]2 | [CF]2 [B,G]6- | %8
w: ||||
 [B,G]2 z2 z4 |] %9
w: |
V:2
 G,2 G,2 G,2 G,2 | A,2 A,2 A,2 G,2 | G,2 E,2 A,2 G,2 | G,2 F,6 | G,2 G,2 G,2 F,2 | %5
 F,2 A,2 F,2 G,2 | D2 D2 C2 A,2 | A,2 G,6- | G,2 z2 z4 |] %9
V:3
 G,,2 B,,2 G,,2 C,2 | A,,2 D,2 C,2 B,,2 | A,,2 A,,2 A,,2 A,,2 | A,,2 D,6 | C,2 B,,2 B,,2 A,,2 | %5
 A,,2 C,2 C,2 B,,2 | G,,2 C,2 C,2 D,2 | D,2 G,,6- | G,,2 z2 z4 |] %9

